src/lib/packages/icons/src/assets/line/folder-clock.svg

<svg xmlns="http://www.w3.org/2000/svg" width="24" height="24" fill="none"><path fill="currentColor" d="M12 9.25a4.254 4.254 0 0 0-4.25 4.25A4.254 4.254 0 0 0 12 17.75a4.254 4.254 0 0 0 4.25-4.25A4.254 4.254 0 0 0 12 9.25Zm0 7a2.753 2.753 0 0 1-2.75-2.75A2.753 2.753 0 0 1 12 10.75a2.753 2.753 0 0 1 2.75 2.75A2.753 2.753 0 0 1 12 16.25Zm1.468-2.343a.75.75 0 0 1-1.06 1.062l-.938-.937a.75.75 0 0 1-.22-.531v-1.312a.75.75 0 0 1 1.5 0v1.002l.718.716ZM18 6.25h-4.689l-2.78-2.78a.749.749 0 0 0-.53-.22h-4c-2.418 0-3.75 1.332-3.75 3.75v10c0 2.418 1.332 3.75 3.75 3.75h12c2.418 0 3.75-1.332 3.75-3.75v-7C21.75 7.582 20.418 6.25 18 6.25ZM20.25 17c0 1.577-.673 2.25-2.25 2.25H6c-1.577 0-2.25-.673-2.25-2.25V7c0-1.577.673-2.25 2.25-2.25h3.689l2.78 2.78c.141.141.331.22.53.22h5c1.577 0 2.25.673 2.25 2.25v7h.001Z"/></svg>

<svg width="24" height="24" viewBox="0 0 24 24" fill="none" xmlns="http://www.w3.org/2000/svg">
<path d="M12 9.25C9.656 9.25 7.75 11.156 7.75 13.5C7.75 15.844 9.656 17.75 12 17.75C14.344 17.75 16.25 15.844 16.25 13.5C16.25 11.156 14.344 9.25 12 9.25ZM12 16.25C10.483 16.25 9.25 15.016 9.25 13.5C9.25 11.984 10.483 10.75 12 10.75C13.517 10.75 14.75 11.984 14.75 13.5C14.75 15.016 13.517 16.25 12 16.25ZM13.468 13.907C13.761 14.2 13.761 14.675 13.468 14.968C13.322 15.114 13.13 15.188 12.938 15.188C12.746 15.188 12.554 15.115 12.408 14.969L11.47 14.032C11.329 13.891 11.25 13.7 11.25 13.501V12.189C11.25 11.775 11.586 11.439 12 11.439C12.414 11.439 12.75 11.775 12.75 12.189V13.191L13.468 13.907ZM18 6.25H13.311L10.531 3.47C10.39 3.329 10.2 3.25 10.001 3.25H6.00098C3.58298 3.25 2.25098 4.582 2.25098 7V17C2.25098 19.418 3.58298 20.75 6.00098 20.75H18.001C20.419 20.75 21.751 19.418 21.751 17V10C21.75 7.582 20.418 6.25 18 6.25ZM20.25 17C20.25 18.577 19.577 19.25 18 19.25H6C4.423 19.25 3.75 18.577 3.75 17V7C3.75 5.423 4.423 4.75 6 4.75H9.68896L12.469 7.53C12.61 7.671 12.8 7.75 12.999 7.75H17.999C19.576 7.75 20.249 8.423 20.249 10V17H20.25Z" fill="currentColor"/>
</svg>
